!!!COM: Marotta, Erasmo
!!!CDT:
!!!PTL: Aminta musicale. Il primo libro de madrigali a cinque voci
!!!PPP: Venice
!!!PPR: Angelo Gardano
!!!PDT: 1600
!!!PUB-format:
!!!RISM: M 714
!!!OTL:	La semplicetta Silvia
!!!act: I
!!!scene: 2
!!!verse: 486
!!!AGN: 
!!!SCT: Tam1020486a
!!!SCA: Tam1020486a
!!!original-voices: 5
!!!extant-voices: 3
!!!complete: N
!!!final: (G)C
**kern	**text	**kern	**text	**kern	**text
*part3	*part3	*part2	*part2	*part1	*part1
*staff3	*staff3	*staff2	*staff2	*staff1	*staff1
*I"Basso	*	*I"Quinto	*	*I"Canto	*
*I'B	*	*I'V	*	*I'C	*
*oclefC4	*	*oclefG2	*	*oclefG2	*
*clefGv2	*	*clefG2	*	*clefG2	*
*k[]	*	*k[]	*	*k[]	*
*omet(C)	*	*omet(C)	*	*omet(C)	*
*M4/2	*	*M4/2	*	*M4/2	*
=1	=1	=1	=1	=1	=1
!!LO:TX:a:t=[Sesta parte]
0r	.	2b	La	0r	.
.	.	4b	sem-	.	.
.	.	4cc	-pli-	.	.
.	.	4a	-cet-	.	.
.	.	4g	-ta	.	.
.	.	2a	Sil-	.	.
=2	=2	=2	=2	=2	=2
0r	.	2b	-via,	0r	.
.	.	2r	.	.	.
.	.	4r	.	.	.
.	.	4a	Pie-	.	.
.	.	4cc	-to-	.	.
.	.	4dd	-sa	.	.
=3	=3	=3	=3	=3	=3
0r	.	4b	del	0r	.
.	.	4a	mio	.	.
.	.	2b	ma-	.	.
.	.	2a	-le,	.	.
.	.	2r	.	.	.
=4	=4	=4	=4	=4	=4
0r	.	4r	.	0r	.
.	.	4ff	S'of-	.	.
.	.	4ee	-frì	.	.
.	.	4ee	di	.	.
.	.	4dd	dar	.	.
.	.	4ff	a-	.	.
.	.	2ee	-i-	.	.
=5	=5	=5	=5	=5	=5
0r	.	1ee	-ta	0r	.
.	.	4r	.	.	.
.	.	8b	A	.	.
.	.	8cc	la	.	.
.	.	[2dd	fin-	.	.
=6	=6	=6	=6	=6	=6
1r	.	4dd]	.	1r	.
.	.	8cc	-ta	.	.
.	.	8b	fe-	.	.
.	.	2a	-ri-	.	.
2r	.	2b	-ta,	2r	.
2G	La	4r	.	2b	La
.	.	4dd	La	.	.
=7	=7	=7	=7	=7	=7
4G	sem-	4dd	sem-	4b	sem-
4C	-pli-	4ee	-pli-	4cc	-pli-
4D	-cet-	4dd	-cet-	4a	-cet-
4E	-ta	4b	-ta	4g	-ta
2D	Sil-	2dd	Sil-	2a	Sil-
2G	-via,	2dd	-via,	2b	-via,
=8	=8	=8	=8	=8	=8
4r	.	2r	.	2r	.
4F	Pie-	.	.	.	.
2.f	-to-	4r	.	4r	.
.	.	4ff	Pie-	4a	Pie-
.	.	4ff	-to-	4cc	-to-
4d	-sa	4ff	-sa	4dd	-sa
4e	del	4ee	del	4b	del
4A	mio	4ee	mio	4a	mio
=9	=9	=9	=9	=9	=9
2e	ma-	2ee	ma-	2b	ma-
4A	-le,	4ee	-le,	2a	-le,
4A	S'of-	4cc	S'of-	.	.
4G	-frì	4b	-frì	2r	.
4G	di	4b	di	.	.
8FL	dar	4a	dar	4r	.
8G	.	.	.	.	.
8A	.	4a	a-	4ff	S'of-
8BJ	.	.	.	.	.
=10	=10	=10	=10	=10	=10
4c	.	4g	-i-	4ee	-frì
4A	a-	4.a	.	4ee	di
2d	-i-	.	.	4dd	dar
.	.	8gL	.	.	.
.	.	8a	.	4ff	a-
.	.	8bJ	.	.	.
2c	-ta	2cc	.	2ee	-i-
4F	A	2cc	-ta,	2ff	-ta
4G	la	.	.	.	.
=11	=11	=11	=11	=11	=11
2A	fin-	0r	.	4cc	A
.	.	.	.	4dd	la
4G	-ta	.	.	1ee	fin-
4F	fe-	.	.	.	.
[1E	-ri-	.	.	.	.
.	.	.	.	4dd	-ta
.	.	.	.	4cc	fe-
=12	=12	=12	=12	=12	=12
1E]	.	1r	.	1b	-ri-
[1A	-ta,	2r	.	1a	-ta,
.	.	[2ee	Ahi	.	.
=13	=13	=13	=13	=13	=13
1A]	.	2ee]	.	1r	.
.	.	1cc	las-	.	.
1r	.	.	.	2r	.
.	.	[2b	-so,	[2g#X	Ahi
=14	=14	=14	=14	=14	=14
0r	.	2b]	.	2g#]	.
.	.	2r	.	2cc	las-
.	.	2r	.	2b	-so,
.	.	2b	<Ahi	2ee	Ahi
=15	=15	=15	=15	=15	=15
1r	.	1cc	las-	1.ee	las-
2r	.	2b	-so,>	.	.
2e	Ahi	[2ee	Ahi	2b	.
=16	=16	=16	=16	=16	=16
1A	las-	2ee]	.	4cc#X	.
.	.	.	.	2dd	.
.	.	1a	las-	.	.
.	.	.	.	4cc#X	.
[1D	-so,	.	.	[1dd	-so,
.	.	[2g	.	.	.
=17	=17	=17	=17	=17	=17
1D]	.	2g]	.	1dd]	.
.	.	2f#X	.	.	.
1r	.	1g	-so,	1r	.
=18	=18	=18	=18	=18	=18
1G	E	2r	.	0r	.
.	.	2b	e	.	.
2A	fe-	2cc	fe-	.	.
4G	-ce	4b	-ce	.	.
4F	più	4a	più	.	.
=19	=19	=19	=19	=19	=19
4E	cu-	4g	cu-	2r	.
4F	-pa e	4a	-pa e	.	.
4G	più	4b	più	2gg	La
4E	mor-	4g	mor-	.	.
1F	-ta-	4a	-ta-	2cc	mia
.	.	8fL	.	.	.
.	.	8gJ	.	.	.
.	.	8aL	.	[2ff	pia-
.	.	8b	.	.	.
.	.	8cc	.	.	.
.	.	8aJ	.	.	.
=20	=20	=20	=20	=20	=20
0G	-le	2b	.	4ff]	.
.	.	.	.	4ff	-ga
.	.	1cc	.	2ee	ve-
.	.	.	.	2dd	-ra-
.	.	2b	-le	4dd	-ce,
.	.	.	.	4b	e
=21	=21	=21	=21	=21	=21
0r	.	1r	.	2cc	fe-
.	.	.	.	4b	-ce
.	.	.	.	4a	più
.	.	2r	.	4g	cu-
.	.	.	.	4a	-pa e
.	.	2gg	La	4b	più
.	.	.	.	4g	mor-
=22	=22	=22	=22	=22	=22
0r	.	2cc	mia	4a	-ta-
.	.	.	.	8fL	.
.	.	.	.	8gJ	.
.	.	2.ff	pia-	8aL	.
.	.	.	.	8b	.
.	.	.	.	8cc	.
.	.	.	.	8aJ	.
.	.	.	.	2b	.
.	.	4ff	-ga	.	.
.	.	2ee	ve-	[2cc	.
=23	=23	=23	=23	=23	=23
1G	La	1dd	-ra-	2cc]	.
.	.	.	.	2b	.
2C	mia	1cc	-ce,	2cc	-le
[2c	pia-	.	.	[2ee	La
=24	=24	=24	=24	=24	=24
4c]	.	0r	.	2ee]	.
4c	-ga	.	.	.	.
2B	ve-	.	.	2dd	mia
1A	-ra-	.	.	2cc	pia-
.	.	.	.	4cc	-ga
.	.	.	.	4cc	ve-
=25	=25	=25	=25	=25	=25
0G	-ce,	0r	.	2.gg	-ra-
.	.	.	.	8ffL	.
.	.	.	.	8eeJ	.
.	.	.	.	4dd	.
.	.	.	.	4g	.
.	.	.	.	2gg	.
=26	=26	=26	=26	=26	=26
2r	.	2r	.	1ee	-ce,
2.c	Quan-	2.ee	Quan-	.	.
.	.	.	.	1r	.
8B	-do	8dd	-do	.	.
8A	le	8cc	le	.	.
4B	la-	4dd	la-	.	.
4G	-bra	4b	-bra	.	.
=27	=27	=27	=27	=27	=27
1A	su-	1cc	su-	2r	.
.	.	.	.	2.ee	Quan-
1G	-e,	1gg	-e,	.	.
.	.	.	.	8dd	-do
.	.	.	.	8cc	le
.	.	.	.	4dd	la-
.	.	.	.	4b	-bra
=28	=28	=28	=28	=28	=28
2r	.	2r	.	2cc	su-
4r	.	2.cc	<Quan-	1g	-e
2e	<Quan-	.	.	.	.
8d	-do	8b	-do	.	.
8c	le	8a	le	.	.
4d	la-	4b	la-	4gg	Giun-
4B	-bra	4dd	-bra	8gg	-se a
.	.	.	.	8ff	le
=29	=29	=29	=29	=29	=29
2c	su-	8ccL	su-	4ee	la-
.	.	8b	.	.	.
.	.	8cc	.	4gg	-bra
.	.	8ddJ	.	.	.
2c	-e>	4ee	.	2cc	mi-
.	.	4cc	-e,	.	.
4F	Giun-	2r	.	2cc	-e,
8F	-se a	.	.	.	.
8G	le	.	.	.	.
4A	la-	4r	.	4a	Giun-
4F	-bra	[4ff	Quan-	8a	-se a
.	.	.	.	8b	le
=30	=30	=30	=30	=30	=30
2c	mi-	4ff]	.	4cc	la-
.	.	8ee	-do	4cc	-bra
.	.	8dd	le	.	.
2c	-e,	4ee	la-	2cc	mi-
.	.	4cc	-bra	.	.
4G	<Giun-	2dd	su-	2b	-e,
8G	-se a	.	.	.	.
8F	le	.	.	.	.
4E	la-	2ee	-e>	4r	.
4C	-bra	.	.	[4cc	Quan-
=31	=31	=31	=31	=31	=31
2G	mi-	2r	.	4cc]	.
.	.	.	.	8b	-do
.	.	.	.	8a	le
2G	-e,	4gg	Giun-	4b	la-
.	.	8gg	-se a	4g	-bra
.	.	8ff	le	.	.
4c	Giun-	4ee	la-	2g	su-
8c	-se a	4gg	-bra	.	.
8B	le	.	.	.	.
4A	la-	2cc	mi-	2a	-e
4c	-bra	.	.	.	.
=32	=32	=32	=32	=32	=32
2F	mi-	1cc	-e,	4a	Giun-
.	.	.	.	8a	-se a
.	.	.	.	8b	le
4F	-e,>	.	.	4cc	la-
2f	Quan-	.	.	4cc	-bra
.	.	2r	.	2cc	mi-
8e	-do	.	.	.	.
8d	le	.	.	.	.
4e	la-	4cc	<Giun-	2cc	-e,
4c	-bra,	8cc	-se a	.	.
.	.	8b	le	.	.
=33	=33	=33	=33	=33	=33
4d	Quan-	4a	la-	1r	.
8c	-do	4a	-bra	.	.
8B	le	.	.	.	.
4c	la-	4a	mi-	.	.
4A	-bra	4a	-e,>	.	.
2B-X	su-	4r	.	4r	.
.	.	2dd	Quan-	2ff	Quan-
[2A	-e	.	.	.	.
.	.	8cc#X	-do	8ee	-do
.	.	8b	le	8dd	le
=34	=34	=34	=34	=34	=34
2A]	.	4cc#X	la-	4ee	la-
.	.	4cc#X	-bra	4ee	-bra
4D	Giun-	2dd	su-	4dd	su-
8D	-se a	.	.	2a	-e,
8E	le	.	.	.	.
4F	la-	4dd	-e,	.	.
4D	-bra	2ff	<Quan-	2dd	<Quan-
2A	mi-	.	.	.	.
.	.	8ee	-do	8cc	-do
.	.	8dd	le	8b	le
=35	=35	=35	=35	=35	=35
2A	-e,	4ee	la-	4cc	la-
.	.	4cc	-bra	4a	-bra
4G	Giun-	4dd	su-	4b	su-
8G	-se a	4b	-e,	4g	-e>
8F	le	.	.	.	.
2E	la-	4cc	Quan-	2r	.
.	.	8b	-do	.	.
.	.	8a	le	.	.
2G	-bra	4b	la-	4gg	Giun-
.	.	4dd	-bra	8gg	-se a
.	.	.	.	8ff	le
=36	=36	=36	=36	=36	=36
[0C	mi-	2cc	su-	4ee	la-
.	.	.	.	4gg	-bra
.	.	2g	-e>	4cc	mi-
.	.	.	.	4cc	-e,
.	.	4cc	Giun-	4ee	Giun-
.	.	8cc	-se a	8ee	-se a
.	.	8dd	le	8ff	le
.	.	4ee	la-	8ggL	la-
.	.	.	.	8ff	.
.	.	4cc	-bra	8ee	.
.	.	.	.	8ddJ	.
=37	=37	=37	=37	=37	=37
1C]	.	8ggL	mi-	4cc	.
.	.	8ff	.	.	.
.	.	8ee	.	4cc	-bra
.	.	8ddJ	.	.	.
.	.	2ee	.	[2cc	mi-
[1Gl	-e.	[1ddl	-e.	2cc]	.
.	.	.	.	4b	.
.	.	.	.	4a	.
=38	=38	=38	=38	=38	=38
0G]	.	0dd]	.	0bl	-e.
==	==	==	==	==	==
*-	*-	*-	*-	*-	*-
!!!system-decoration: [*]
!!!RDF**kern: i = editorial accidental
!!!RDF**kern: l = terminal long
!!!ENC: Emiliano Ricciardi
!!!END: 2018/05/18
!!!EED: Coluzzi, Seth
!!!EEV: 2018/07/13
!!!YEC: Copyright 2018 Emiliano Ricciardi, All Rights Reserved
!!!ONB: Translated from MusicXML on 2018/07/13 and edited by Craig Stuart Sapp
!!@@BEGIN:	VERSEDATA
!!@CATALOGNUM:	Tam1020486
!!@LAST_MODIFIED: 2020/07/12
!!@ACT:      I
!!@SCENE:    2
!!@VERSE:    486
!!@TITLE:   La semplicetta Silvia
!!@MANUSRC:	A-Am, A-Au, A-Br, A-CM, A-F, A-Ub
!!@PRINTSRC:	A-1580D, A-1580M, A-1581B, A-1581B<sub>bis</sub>, A-1581M, A-1581M<sub>bis</sub>, A-1581O, A-1581V, A-1582B, A-1583M, A-1583V, A-1584A, A-1585C, A-1585V, A-1585V<sub>bis</sub>, A-1588B, A-1589M, A-1589V, A-1590Mb, A-1590Mv, A-1591M, A-1591W, A-1592B, A-1596B, A-1596M, A-1599Bf, A-1599Bp, A-1600R, A-1601Bf, A-1601Bp, A-1602B, A-1603Bf, A-1603Bv, A-1603Z, A-1605R, A-1606Z, A-1608D, A-1608DP, A-1609Bf, A-1609Bv, A-1609Z, A-1611D, A-1614GT, A-1617D, A-1618B, A-1619D, A-1619I, A-1620V, A-1622D, A-1623A, A-1624M, A-1624S, A-1624T, A-1625U, A-1628U, A-1632D, A-1634R
!!@@BEGIN:	VERSES
!!@ABOUTIT:	
!!@ABOUTEN:	
!!@EDITOR:	Solerti, Angelo
!!@EDITION_TITLE: Opere minori in versi di Torquato Tasso. Edizione critica sugli autografi e sulle antiche stampe.
!!@EDITION_LOC:	Bologna
!!@EDITION_PUB:	Zanichelli
!!@EDITION_DATE:  1895
!!@EDITION_VOL:	3
!!@EDITION_PAGE:
!!@TRANSLATOR:	Emiliano Ricciardi and Amyrose McCue Gill
!!@VERSE:	
!!	La semplicetta Silvia,
!!	Pietosa del mio male,
!!	S'offrì di dare aita
!!	A la finta ferita, ahi lasso, e fece
!!	Più cupa e più mortale
!!	La mia piaga verace,
!!	Quando le labra sue
!!	Giunse a le labra mie.
!!@TVERSE:
!!	Innocent little Silvia,
!!	Pitying my hurt,
!!	Offered to give aid
!!	To the false injury, alas unhappy man, and made
!!	More grim and more lethal
!!	My true wound,
!!	When her lips
!!	Joined to my lips.
!!@@END:		VERSES
!!@NEW_CRIT_ED:   Torquato Tasso, <i>Aminta. "Princeps."</i>, ed. Matteo Navone, vol. 9 of Commissione Nazionale per l'Edizione delle opere del Tasso. Studi e Testi (Alessandria: Edizioni dell'Orso, 2014).
!!@ATTRIBUTION_ABOUT:	
!!@DATING:	1573
!!@DEDICATEE:	
!!@COMMENTARY:
!!@@END:		VERSEDATA
!!@@BEGIN: SETTING
!!@CATALOGNUM:	Tam1020486a
!!@ACT:		I
!!@SCENE:		2
!!@VERSE:		486
!!@TITLE:		La semplicetta Silvia
!!@COMPOSER:	Marotta, Erasmo
!!@PRINCEPSTITLE:	Aminta musicale. Il primo libro de madrigali a cinque voci
!!@PRINCEPSLOC:	Venice
!!@NORMLOC:	Venice
!!@NORMPUB:	Angelo Gardano
!!@NORMPUBSHORT:	Gardano
!!@PRINCEPSPUB:	Angelo Gardano
!!@PRINCEPSYEAR:	1600
!!@PRINCEPSRISM:	M 714
!!@OVOICES:	5
!!@EXTANTVOICES:	3
!!@OMENSURATION:	C
!!@OCLEFS:	G2,G2,C4
!!@OTIME:		
!!@OKEYSIG:	-
!!@FINAL:		(G)C
!!@TIMPEDITOR:	Coluzzi, Seth
!!@PARTS:		6 of 8
!!@REPRINTS:	
!!@@END: SETTING
